X:3500
T:Lady Wrixon
O:england
M:6/8
L:1/16
C:O'Carolan
N:Bulmer and Sharpley tune 169
K:EMix
L:1/16
c2|B4 E2 G4 E2|B4 E2 B2c2d2|A4 D2 F4 D2|A4 D2 F2G2A2|\
B4 E2 G4 E2|B4 E2 B2c2d2|A4 F2 d4 F2|EFG2E2 E4 :|
|: B/c/^d|e4 e2 f2^d2B2|e4 e2 f2^d2B2|=d4 d2 c2e2c2|d6 B4 d2|\
c2e2c2 B2d2B2|A2c2A2 G2B2G2|F2A2F2 F2d2F2|EFG2E2 E4 :|


